X: 1
T: John of Badenyon
T: Old Time Wedding Reel #1
B: Dunlay/Greenberg Coll.
S: page from Concord Slow Scottish Session collection, handwritten by Barbara McOwen
R: reel
M: 4/4
K: Am
L: 1/8
"A"[|] B |\
"Am"AGEG AGEG | "C"cdcA "G"G2GB | "Am"~A2cd edcG | "Am"ABcd "Em"e2eg | "Am"abag "G"egdB |
"C"cAGA c2cd | "Am"edcA "G"GEcE | "Em7"~D2 EG "Am"A2A "B":: g | "Am"ageg ageb | "C"gede "G"~g2gb |
"Am"agea gbed | "Am"cAcd "Em"e2eg | "Am"abag "G"egdB | "C"cAGA ~c2cd | "Am"edcA "G"GEcE | "Em7"~D2 EG "Am"A2A |]

%%sep 1 1 500

